X: 43313
T: Woods Of Old Limerick, The
R: jig
M: 6/8
K: Fmajor
|:G|AFF GAB|cff ecB|AFF GAB|GCC GAB|
AFF GAB|cff ecB|AFF GAB|GFE F2:|
|:f/g/|aff fgf|ecc cfg|aff fga|bge ffg|
agf gfe|fgf ecB|AFF GAB|GFE F2:|

